X: 1
T: Katrina's Jig
C: Ian Muir
N: Ian Muir is part of the Craigellachie Band.
R: jig
Z: 2013 John Chambers <jc:trillian.mit.edu>
M: 6/8
L: 1/8
K: G
"D7"d_dc |\
"G"B2B "D7"ABc | "G"B2G D2D | "Am"d2d "D7"cde | "G"d2d "E/g#"d2B |\
"Am"cBc "D7"A2c | "G"B^AB G2B | "Em"A2d "A7"^cde | "Am"d3 "D7"edc ||
"G"B2B "D7"ABc | "G"B2G D2D | "Am"d2d "D7"cde | "G"d2d d2B |\
"Am"cBc "D7"ABc | "G"B^AB "Em"G=AB | "Am"cde "D7"B2A | "Dm7"G3 "G7"G2d |]
"C"e^de "D7"fef | "G"e2d B2B | "Am"cBc "D7"edc | "G"B3 B2B |\
"A7"A^CE AB^c | "D"d^cd Fcd | "E7"ede "A7"f2e | "D"d3 "G7"d2^d |
"C"e^de "D7"fef | "G"e2d B2B | "Am"cBc "D7"edc | "G"B3 B2B |\
"Am"ABc "D7"B2A | "G"Bde "E/g#"d2B | "Am"cBd "D7"B2A | "G"G3 |]
